icon-svg/abc-iview.svg

<svg xmlns="http://www.w3.org/2000/svg" fill="#44739e" viewBox="0 0 24 24"><path d="m20.745 15.209-.966 3.134-.869-3.134h-1.003l-.872 3.155-.979-3.155h-1.244l1.738 4.898h.959l.886-2.971.901 2.971h.956L22 15.209ZM3.426 14.05a.713.713 0 0 1-.713.713A.713.713 0 0 1 2 14.05a.713.713 0 0 1 .713-.713.713.713 0 0 1 .713.713M2.15 15.209h1.157v4.898H2.15Zm3.817 3.128-1.173-3.128H3.529l1.948 4.898h.949l1.948-4.898H7.128Zm2.637-3.128h1.157v4.898H8.604Zm3.526 3.659 2.059-1.225-2.059-1.227Zm3.115-1.248a2.619 2.619 0 1 0-.2 1.027h-1.188a1.6 1.6 0 1 1 .361-1.029zM11.292 6.579a.707.707 0 0 1 1.362.051l2.163 5.749a5.6 5.6 0 0 0 .559 1.105 2.03 2.03 0 0 0 1.607.724 1.71 1.71 0 0 0 .686-.127 2.119 2.119 0 0 0 1.321-1.867L19 5.938a2.038 2.038 0 0 0-.772-1.846 2.116 2.116 0 0 0-2-.171 2.332 2.332 0 0 0-1.258 1.566l1.1 3.058.852-2.452v5.8l-2.286-6.365a2.866 2.866 0 0 0-1.146-1.416 2.874 2.874 0 0 0-2.281-.242 2.8 2.8 0 0 0-1.737 1.5l1.146 3.021zm1.496 7.505a2.79 2.79 0 0 0 1.737-1.5l-1.147-3.02-.673 1.813a.707.707 0 0 1-1.362-.051l-2.166-5.75a5.6 5.6 0 0 0-.56-1.106 2.035 2.035 0 0 0-1.607-.724 1.87 1.87 0 0 0-.682.118 2.121 2.121 0 0 0-1.322 1.867L5 12.007a2.039 2.039 0 0 0 .772 1.849 2.116 2.116 0 0 0 2 .171 2.339 2.339 0 0 0 1.258-1.566L7.935 9.4l-.855 2.455v-5.8l2.281 6.371a2.692 2.692 0 0 0 3.427 1.658"/></svg>

<?xml version="1.0" encoding="UTF-8"?>
<svg width="24px" fill="#44739e" height="24px" viewBox="0 0 24 24" version="1.1" xmlns="http://www.w3.org/2000/svg" xmlns:xlink="http://www.w3.org/1999/xlink">
            <path d="m 20.745,15.209 -0.966,3.134 -0.869,-3.134 h -1.003 l -0.872,3.155 -0.979,-3.155 h -1.244 l 1.738,4.898 h 0.959 l 0.886,-2.971 0.901,2.971 h 0.956 L 22,15.209 Z M 3.4260001,14.05 a 0.713,0.713 0 0 1 -0.713,0.713 0.713,0.713 0 0 1 -0.713,-0.713 0.713,0.713 0 0 1 0.713,-0.713 0.713,0.713 0 0 1 0.713,0.713 z m -1.276,1.159 H 3.307 v 4.897999 H 2.1500001 Z M 5.967,18.337 4.794,15.209 H 3.529 l 1.948,4.898 H 6.426 L 8.374,15.209 H 7.128 Z M 8.6040001,15.209 H 9.761 v 4.897999 H 8.6040001 Z M 12.13,18.868 14.189,17.643 12.13,16.416 Z m 3.115,-1.248 a 2.619,2.619 0 1 0 -0.2,1.027 h -1.188 v 0 a 1.6,1.6 0 1 1 0.361,-1.029 z M 11.292,6.579 a 0.707,0.707 0 0 1 1.362,0.051 l 2.163,5.749 a 5.584,5.584 0 0 0 0.559,1.105 2.03,2.03 0 0 0 1.607,0.724 1.712,1.712 0 0 0 0.686,-0.127 2.119,2.119 0 0 0 1.321,-1.867 L 19,5.938 a 2.038,2.038 0 0 0 -0.772,-1.846 2.116,2.116 0 0 0 -2,-0.171 2.332,2.332 0 0 0 -1.258,1.566 l 1.1,3.058 0.852,-2.452 v 5.8 L 14.636,5.528 A 2.866,2.866 0 0 0 13.49,4.112 2.874,2.874 0 0 0 11.209,3.87 2.8,2.8 0 0 0 9.472,5.37 l 1.146,3.021 z m 1.496,7.505 a 2.79,2.79 0 0 0 1.737,-1.5 l -1.147,-3.02 -0.673,1.813 A 0.707,0.707 0 0 1 11.343,11.326 L 9.177,5.576 A 5.6,5.6 0 0 0 8.617,4.47 2.035,2.035 0 0 0 7.01,3.746 1.87,1.87 0 0 0 6.328,3.864 2.121,2.121 0 0 0 5.006,5.731 L 5,12.007 a 2.039,2.039 0 0 0 0.772,1.849 2.116,2.116 0 0 0 2,0.171 2.339,2.339 0 0 0 1.258,-1.566 L 7.935,9.4 7.08,11.855 v -5.8 l 2.281,6.371 a 2.692,2.692 0 0 0 3.427,1.658 z"/>

</svg>
